packages/components/src/components/icon/common/ic-poi-error-dashboard.svg

<svg width="233" height="128" viewBox="0 0 233 128" fill="none" xmlns="http://www.w3.org/2000/svg">
<rect width="232.727" height="128" fill="white"/>
<g style="mix-blend-mode:multiply">
<path d="M110.818 53.6645C112.5 53.6645 113.872 55.0369 113.872 56.7191V99.6598C113.872 101.342 112.5 102.714 110.818 102.714H34.2328C32.5506 102.714 31.1782 101.342 31.1782 99.6598V56.7191C31.1782 55.0369 32.5506 53.6645 34.2328 53.6645H110.818ZM110.818 50.123H34.2328C30.6027 50.123 27.6367 53.0669 27.6367 56.7191V99.6598C27.6367 103.312 30.6027 106.256 34.2328 106.256H110.818C114.47 106.256 117.414 103.29 117.414 99.6598V56.7191C117.414 53.0669 114.47 50.123 110.818 50.123Z" fill="#85ACB0"/>
</g>
<g opacity="0.6">
<path opacity="0.6" d="M165.534 13.2233L112.5 26.2826H171.068V17.5838C171.09 14.662 168.345 12.5371 165.534 13.2233Z" fill="#85ACB0"/>
</g>
<g style="mix-blend-mode:multiply">
<path d="M173.391 114.909H113.363C109.689 114.909 106.723 111.943 106.723 108.269V35.1813C106.723 31.507 109.689 28.541 113.363 28.541H173.414C177.088 28.541 180.054 31.507 180.054 35.1813V108.269C180.032 111.943 177.066 114.909 173.391 114.909Z" fill="#85ACB0"/>
</g>
<path d="M163.097 64.5967C163.097 64.5746 163.097 64.5303 163.097 64.5082C163.097 53.6845 154.332 44.875 143.53 44.8086C143.508 44.8086 143.486 44.8086 143.464 44.8086C143.442 44.8086 143.42 44.8086 143.398 44.8086H143.375C132.552 44.8086 123.742 53.5738 123.676 64.3754C123.676 64.3975 123.676 64.4197 123.676 64.4418V64.4639C123.676 64.4861 123.676 64.5082 123.676 64.5303C123.676 75.3098 132.375 84.0971 143.132 84.2299C143.176 84.2299 143.22 84.2521 143.243 84.2521C143.265 84.2521 143.287 84.2521 143.309 84.2521C143.331 84.2521 143.331 84.2521 143.353 84.2521C143.375 84.2521 143.375 84.2521 143.398 84.2521C154.177 84.2521 162.964 75.5533 163.097 64.7959C163.097 64.7517 163.119 64.7295 163.119 64.6853C163.097 64.6189 163.097 64.5967 163.097 64.5967ZM143.309 81.596C143.265 81.596 143.243 81.596 143.22 81.596C141.162 81.5074 138.971 78.4307 137.709 73.4948C139.48 73.7382 141.339 73.8489 143.265 73.871C143.309 73.871 143.353 73.871 143.375 73.871C145.367 73.871 147.271 73.7382 149.064 73.4948C148.289 76.5493 147.116 79.0062 145.677 80.445C144.881 81.1975 144.062 81.6181 143.309 81.596ZM143.353 71.2371C143.309 71.2371 143.287 71.2371 143.243 71.2371C141.096 71.2371 139.037 71.0378 137.111 70.728C136.801 68.7801 136.624 66.6552 136.624 64.3533C136.624 62.2062 136.824 60.1477 137.133 58.222C139.037 57.9122 141.118 57.7351 143.353 57.7351C143.375 57.7351 143.398 57.7351 143.398 57.7351C145.567 57.7351 147.669 57.9343 149.617 58.2442C149.927 60.1477 150.104 62.2505 150.104 64.5082C150.104 66.6774 149.905 68.7801 149.595 70.728C147.714 71.06 145.611 71.2371 143.353 71.2371ZM126.288 64.4197C126.332 62.339 129.431 60.1035 134.389 58.8197C134.145 60.5904 134.035 62.4497 134.013 64.3754C134.013 66.4118 134.145 68.3596 134.389 70.1967C131.334 69.422 128.855 68.271 127.416 66.8102C126.664 66.0355 126.266 65.2608 126.288 64.4639C126.266 64.4418 126.288 64.4197 126.288 64.4197ZM143.398 47.3983C143.42 47.3983 143.442 47.3983 143.464 47.3983C145.545 47.4426 147.78 50.5414 149.064 55.4995C147.271 55.256 145.39 55.1232 143.42 55.1232C143.398 55.1232 143.375 55.1232 143.353 55.1232C141.361 55.1232 139.48 55.256 137.687 55.4995C138.462 52.4228 139.613 49.9438 141.073 48.5272C141.826 47.7746 142.623 47.3983 143.398 47.3983ZM152.362 58.8197C155.416 59.5944 157.896 60.7675 159.334 62.2062C160.109 62.9809 160.485 63.7778 160.485 64.5525C160.485 64.5746 160.485 64.6189 160.485 64.641C160.397 66.6995 157.32 68.8908 152.384 70.1525C152.628 68.3596 152.76 66.456 152.76 64.5082C152.738 62.5382 152.605 60.6347 152.362 58.8197ZM159.578 59.0853C157.63 57.7351 154.952 56.6948 151.831 56.0086C151.145 52.8876 150.082 50.2315 148.754 48.2837C153.867 49.9659 157.873 53.9944 159.578 59.0853ZM137.908 48.3058C136.58 50.2537 135.54 52.9098 134.854 56.0307C131.733 56.7169 129.077 57.7793 127.151 59.1074C128.855 54.0165 132.862 50.0102 137.908 48.3058ZM127.195 69.9533C129.143 71.2813 131.777 72.3216 134.876 72.9857C135.54 76.1066 136.558 78.7406 137.864 80.6663C132.839 78.9398 128.877 74.9778 127.195 69.9533ZM148.798 80.7106C150.149 78.7627 151.189 76.1066 151.875 73.0078C154.996 72.3438 157.63 71.3035 159.556 70.0197C157.829 75.0442 153.823 79.0062 148.798 80.7106Z" fill="white"/>
<g style="mix-blend-mode:multiply">
<path fill-rule="evenodd" clip-rule="evenodd" d="M135.496 94.6963V99.5216H139.857C140.211 97.9279 141.649 96.7105 143.354 96.7105C145.058 96.7105 146.497 97.9058 146.851 99.5216H151.212V94.6963H135.496ZM143.376 103.908C141.672 103.908 140.233 102.713 139.879 101.097H135.518V105.9H151.256V101.097H146.895C146.519 102.691 145.08 103.908 143.376 103.908ZM143.376 98.2883C144.483 98.2883 145.39 99.1958 145.39 100.302C145.39 101.409 144.483 102.317 143.376 102.317C142.269 102.317 141.362 101.409 141.362 100.302C141.362 99.1958 142.269 98.2883 143.376 98.2883Z" fill="#85ACB0"/>
</g>
<g style="mix-blend-mode:multiply">
<path d="M181.336 114.669C193.922 114.669 204.125 104.466 204.125 91.8798C204.125 79.2938 193.922 69.0908 181.336 69.0908C168.75 69.0908 158.547 79.2938 158.547 91.8798C158.547 104.466 168.75 114.669 181.336 114.669Z" fill="#FF444F"/>
</g>
<path d="M184.14 78.3438H178.531V93.5805H184.14V78.3438Z" fill="white"/>
<path d="M181.336 97.9521C179.26 97.9521 177.582 99.6304 177.582 101.706C177.582 103.782 179.26 105.46 181.336 105.46C183.412 105.46 185.09 103.782 185.09 101.706C185.09 99.6304 183.412 97.9521 181.336 97.9521Z" fill="white"/>
<path d="M67.4779 95.0996H44.9451C42.2668 95.0996 40.0977 92.9305 40.0977 90.2522V65.3953C40.0977 62.717 42.2668 60.5479 44.9451 60.5479H67.4779C70.1562 60.5479 72.3253 62.717 72.3253 65.3953V90.2522C72.3032 92.9305 70.134 95.0996 67.4779 95.0996Z" fill="#85ACB0"/>
<path d="M56.2329 78.1883C58.8856 78.1883 61.036 76.0379 61.036 73.3852C61.036 70.7325 58.8856 68.582 56.2329 68.582C53.5801 68.582 51.4297 70.7325 51.4297 73.3852C51.4297 76.0379 53.5801 78.1883 56.2329 78.1883Z" fill="white"/>
<path d="M58.4018 81.4854H54.0414C50.4556 81.4854 47.556 84.4071 47.556 87.9929L47.5117 90.4941H64.8651L64.9094 87.9929C64.9094 84.4071 62.0097 81.4854 58.4018 81.4854Z" fill="white"/>
<path d="M89.7014 78.8086H79.8516V82.1287H89.7014V78.8086Z" fill="#85ACB0"/>
<path d="M98.5551 85.2939H79.8516V88.6141H98.5551V85.2939Z" fill="#85ACB0"/>
<path d="M98.5551 91.7793H79.8516V95.0994H98.5551V91.7793Z" fill="#85ACB0"/>
<g style="mix-blend-mode:multiply">
<path d="M93.7318 72.7197H71.199C68.5207 72.7197 66.3516 70.5506 66.3516 67.8723V43.0154C66.3516 40.3371 68.5207 38.168 71.199 38.168H93.7318C96.4101 38.168 98.5792 40.3371 98.5792 43.0154V67.8723C98.5792 70.5506 96.4101 72.7197 93.7318 72.7197Z" fill="#85ACB0"/>
</g>
<path fill-rule="evenodd" clip-rule="evenodd" d="M74.6944 52.9532C75.1592 51.9129 75.6019 50.8725 76.1995 49.6773C76.5316 49.1239 76.8857 48.6148 77.5276 48.5484H87.4438C88.0857 48.6148 88.4399 49.1018 88.7719 49.6773C89.3695 50.8504 89.8122 51.9129 90.277 52.9532H74.6944ZM79.3426 57.203H85.5845C85.9608 57.203 86.2707 57.535 86.2707 57.9113C86.2707 58.2654 85.983 58.5974 85.5845 58.5974H79.3426C78.9885 58.5974 78.6565 58.2654 78.6565 57.9113C78.6565 57.5129 78.9885 57.203 79.3426 57.203ZM77.5055 46.999C76.443 46.999 75.8011 47.3753 74.9158 48.6148L73.4549 51.935H71.2193C70.8652 51.935 70.2233 53.75 72.5695 53.8164L71.7727 55.72C71.7948 58.1548 71.7948 60.5674 71.7948 62.9801C71.7948 63.4891 72.2154 63.8876 72.7023 63.8876H75.7569C76.2659 63.8876 76.6422 63.467 76.6422 62.9801V60.988H88.2407V62.9801C88.2407 63.4891 88.6612 63.8876 89.1482 63.8876H92.2027C92.7118 63.8876 93.0881 63.467 93.0881 62.9801C93.0881 60.5674 93.1102 58.1548 93.1102 55.72L92.3134 53.8164C94.7039 53.75 94.0177 51.935 93.6857 51.935H91.4502L89.9893 48.6148C89.1039 47.3753 88.462 46.999 87.3996 46.999H77.5055ZM89.8122 55.897C89.0154 55.897 88.3513 56.5389 88.3513 57.3579C88.3513 58.1548 89.0375 58.8188 89.8122 58.8188C90.6312 58.8188 91.2731 58.1326 91.2731 57.3579C91.2731 56.5389 90.6312 55.897 89.8122 55.897ZM75.1371 55.897C75.9339 55.897 76.598 56.5389 76.598 57.3579C76.598 58.1548 75.9118 58.8188 75.1371 58.8188C74.3181 58.8188 73.6762 58.1326 73.6762 57.3579C73.6541 56.5389 74.296 55.897 75.1371 55.897Z" fill="white"/>
</svg>

<svg width="233" height="128" fill="none" xmlns="http://www.w3.org/2000/svg"><path fill="#fff" d="M0 0h232.727v128H0z"/><path d="M110.818 53.664a3.06 3.06 0 013.054 3.055v42.94a3.06 3.06 0 01-3.054 3.055H34.233a3.06 3.06 0 01-3.055-3.054V56.72a3.06 3.06 0 013.055-3.056h76.585zm0-3.541H34.233a6.598 6.598 0 00-6.596 6.596v42.94a6.598 6.598 0 006.596 6.597h76.585a6.598 6.598 0 006.596-6.596V56.72a6.584 6.584 0 00-6.596-6.597z" fill="#85ACB0"/><path opacity=".6" d="M165.534 13.223L112.5 26.283h58.568v-8.7c.022-2.921-2.723-5.046-5.534-4.36z" fill="#85ACB0"/><path d="M173.391 114.909h-60.028a6.631 6.631 0 01-6.64-6.64V35.181a6.631 6.631 0 016.64-6.64h60.051a6.631 6.631 0 016.64 6.64v73.088c-.022 3.674-2.988 6.64-6.663 6.64z" fill="#85ACB0"/><path d="M163.097 64.597v-.089c0-10.823-8.765-19.633-19.567-19.7h-.155c-10.823 0-19.633 8.766-19.699 19.567v.155c0 10.78 8.699 19.567 19.456 19.7.044 0 .088.022.111.022h.155c10.779 0 19.566-8.699 19.699-19.456 0-.044.022-.067.022-.11-.022-.067-.022-.09-.022-.09zm-19.788 16.999h-.089c-2.058-.089-4.249-3.165-5.511-8.101 1.771.243 3.63.354 5.556.376h.11a42.35 42.35 0 005.689-.376c-.775 3.054-1.948 5.511-3.387 6.95-.796.753-1.615 1.173-2.368 1.151zm.044-10.359h-.11c-2.147 0-4.206-.2-6.132-.509a40.544 40.544 0 01-.487-6.375c0-2.147.2-4.205.509-6.131a38.779 38.779 0 016.22-.487h.045c2.169 0 4.271.2 6.219.51.31 1.903.487 4.006.487 6.263 0 2.17-.199 4.272-.509 6.22-1.881.332-3.984.51-6.242.51zm-17.065-6.817c.044-2.081 3.143-4.317 8.101-5.6-.244 1.77-.354 3.63-.376 5.555 0 2.037.132 3.985.376 5.822-3.055-.775-5.534-1.926-6.973-3.387-.752-.775-1.15-1.55-1.128-2.346-.022-.022 0-.044 0-.044zm17.11-17.022h.066c2.081.045 4.316 3.143 5.6 8.101a41.898 41.898 0 00-5.644-.376h-.067c-1.992 0-3.873.133-5.666.377.775-3.077 1.926-5.556 3.386-6.973.753-.752 1.55-1.129 2.325-1.129zm8.964 11.422c3.054.774 5.534 1.947 6.972 3.386.775.775 1.151 1.572 1.151 2.346v.089c-.088 2.058-3.165 4.25-8.101 5.511.244-1.792.376-3.696.376-5.644a46.894 46.894 0 00-.398-5.688zm7.216.265c-1.948-1.35-4.626-2.39-7.747-3.076-.686-3.121-1.749-5.778-3.077-7.725 5.113 1.682 9.119 5.71 10.824 10.801zm-21.67-10.78c-1.328 1.949-2.368 4.605-3.054 7.726-3.121.686-5.777 1.748-7.703 3.076a17.174 17.174 0 0110.757-10.801zm-10.713 21.648c1.948 1.328 4.582 2.369 7.681 3.033.664 3.12 1.682 5.755 2.988 7.68-5.025-1.726-8.987-5.688-10.669-10.713zm21.603 10.758c1.351-1.948 2.391-4.604 3.077-7.703 3.121-.664 5.755-1.704 7.681-2.988-1.727 5.024-5.733 8.986-10.758 10.69z" fill="#fff"/><path fill-rule="evenodd" clip-rule="evenodd" d="M135.496 94.696v4.826h4.361c.354-1.594 1.792-2.812 3.497-2.812a3.582 3.582 0 013.497 2.812h4.361v-4.826h-15.716zm7.88 9.212a3.582 3.582 0 01-3.497-2.811h-4.361v4.803h15.738v-4.803h-4.361c-.376 1.594-1.815 2.811-3.519 2.811zm0-5.62c1.107 0 2.014.908 2.014 2.014a2.022 2.022 0 01-2.014 2.015 2.022 2.022 0 01-2.014-2.015c0-1.106.907-2.014 2.014-2.014z" fill="#85ACB0"/><path d="M181.336 114.669c12.586 0 22.789-10.203 22.789-22.79 0-12.585-10.203-22.788-22.789-22.788-12.586 0-22.789 10.203-22.789 22.789 0 12.586 10.203 22.789 22.789 22.789z" fill="#FF444F"/><path d="M184.14 78.344h-5.609V93.58h5.609V78.344zM181.336 97.952a3.75 3.75 0 00-3.754 3.754 3.75 3.75 0 003.754 3.754 3.75 3.75 0 003.754-3.754 3.75 3.75 0 00-3.754-3.754z" fill="#fff"/><path d="M67.478 95.1H44.945a4.846 4.846 0 01-4.847-4.848V65.395a4.846 4.846 0 014.847-4.847h22.533a4.846 4.846 0 014.847 4.847v24.857c-.022 2.678-2.191 4.848-4.847 4.848z" fill="#85ACB0"/><path d="M56.233 78.188a4.803 4.803 0 100-9.606 4.803 4.803 0 000 9.606zM58.402 81.485h-4.36c-3.586 0-6.486 2.922-6.486 6.508l-.044 2.501h17.353l.044-2.501c0-3.586-2.9-6.508-6.507-6.508z" fill="#fff"/><path d="M89.701 78.809h-9.85v3.32h9.85v-3.32zM98.555 85.294H79.852v3.32h18.703v-3.32zM98.555 91.78H79.852v3.32h18.703v-3.32zM93.732 72.72H71.199a4.846 4.846 0 01-4.847-4.848V43.015a4.846 4.846 0 014.847-4.847h22.533a4.846 4.846 0 014.847 4.847v24.857a4.846 4.846 0 01-4.847 4.848z" fill="#85ACB0"/><path fill-rule="evenodd" clip-rule="evenodd" d="M74.694 52.953c.465-1.04.908-2.08 1.505-3.276.333-.553.687-1.062 1.329-1.129h9.916c.642.067.996.554 1.328 1.13.597 1.172 1.04 2.235 1.505 3.275H74.694zm4.649 4.25h6.242c.376 0 .686.332.686.708a.69.69 0 01-.686.686h-6.242c-.355 0-.687-.332-.687-.686a.71.71 0 01.687-.708zm-1.838-10.204c-1.062 0-1.704.376-2.59 1.616l-1.46 3.32h-2.236c-.354 0-.996 1.815 1.35 1.881l-.796 1.904c.022 2.435.022 4.847.022 7.26 0 .51.42.908.907.908h3.055c.509 0 .885-.421.885-.908v-1.992h11.599v1.992c0 .51.42.908.907.908h3.055c.509 0 .885-.421.885-.908 0-2.413.022-4.825.022-7.26l-.797-1.904c2.39-.066 1.705-1.881 1.373-1.881H91.45l-1.46-3.32c-.886-1.24-1.528-1.616-2.59-1.616h-9.895zm12.307 8.898a1.46 1.46 0 00-1.46 1.46c0 .798.685 1.462 1.46 1.462.82 0 1.461-.686 1.461-1.461 0-.82-.642-1.461-1.46-1.461zm-14.675 0c.797 0 1.461.642 1.461 1.46 0 .798-.686 1.462-1.46 1.462-.82 0-1.462-.686-1.462-1.461-.022-.82.62-1.461 1.461-1.461z" fill="#fff"/></svg>
